viessmann/assets/img/arrow.svg

<svg width="201" height="9" viewBox="0 0 201 9" fill="none" xmlns="http://www.w3.org/2000/svg">
<path opacity="0.5" d="M200.354 4.85355C200.549 4.65829 200.549 4.34171 200.354 4.14645L197.172 0.964466C196.976 0.769204 196.66 0.769204 196.464 0.964466C196.269 1.15973 196.269 1.47631 196.464 1.67157L199.293 4.5L196.464 7.32843C196.269 7.52369 196.269 7.84027 196.464 8.03553C196.66 8.2308 196.976 8.2308 197.172 8.03553L200.354 4.85355ZM0 5H2V4H0V5ZM6 5H10V4H6V5ZM14 5H18V4H14V5ZM22 5H26V4H22V5ZM30 5H34V4H30V5ZM38 5H42V4H38V5ZM46 5H50V4H46V5ZM54 5H58V4H54V5ZM62 5H66V4H62V5ZM70 5H74V4H70V5ZM78 5H82V4H78V5ZM86 5H90V4H86V5ZM94 5H98V4H94V5ZM102 5H106V4H102V5ZM110 5H114V4H110V5ZM118 5H122V4H118V5ZM126 5H130V4H126V5ZM134 5H138V4H134V5ZM142 5H146V4H142V5ZM150 5H154V4H150V5ZM158 5H162V4H158V5ZM166 5H170V4H166V5ZM174 5H178V4H174V5ZM182 5H186V4H182V5ZM190 5H194V4H190V5ZM198 5H200V4H198V5Z" fill="url(#paint0_linear_303_659)"/>
<defs>
<linearGradient id="paint0_linear_303_659" x1="90" y1="4.99964" x2="16.5" y2="4.99964" gradientUnits="userSpaceOnUse">
<stop stop-color="white"/>
<stop offset="1" stop-color="white" stop-opacity="0"/>
</linearGradient>
</defs>
</svg>

<svg width="201" height="9" fill="none" xmlns="http://www.w3.org/2000/svg"><path opacity=".5" d="M200.354 4.854a.5.5 0 0 0 0-.708L197.172.964a.501.501 0 0 0-.708.708l2.829 2.828-2.829 2.828a.5.5 0 0 0 .708.708l3.182-3.182ZM0 5h2V4H0v1Zm6 0h4V4H6v1Zm8 0h4V4h-4v1Zm8 0h4V4h-4v1Zm8 0h4V4h-4v1Zm8 0h4V4h-4v1Zm8 0h4V4h-4v1Zm8 0h4V4h-4v1Zm8 0h4V4h-4v1Zm8 0h4V4h-4v1Zm8 0h4V4h-4v1Zm8 0h4V4h-4v1Zm8 0h4V4h-4v1Zm8 0h4V4h-4v1Zm8 0h4V4h-4v1Zm8 0h4V4h-4v1Zm8 0h4V4h-4v1Zm8 0h4V4h-4v1Zm8 0h4V4h-4v1Zm8 0h4V4h-4v1Zm8 0h4V4h-4v1Zm8 0h4V4h-4v1Zm8 0h4V4h-4v1Zm8 0h4V4h-4v1Zm8 0h4V4h-4v1Zm8 0h2V4h-2v1Z" fill="url(#a)"/><defs><linearGradient id="a" x1="90" y1="5" x2="16.5" y2="5" gradientUnits="userSpaceOnUse"><stop stop-color="#fff"/><stop offset="1" stop-color="#fff" stop-opacity="0"/></linearGradient></defs></svg>
